images/logo.svg

<svg width="152" height="32" viewBox="0 0 152 32" fill="none" xmlns="http://www.w3.org/2000/svg">
<path d="M17.0195 12.6013C15.6888 12.6013 11.4049 20.0569 12.0586 21.3156C12.7122 22.5744 21.3346 22.5606 21.9804 21.3156C22.6263 20.0706 18.3502 12.6019 17.0195 12.6013Z" fill="url(#paint0_linear)"/>
<path d="M17.0195 1.45624C13.0098 1.45624 0.102207 23.9206 2.07031 27.7144C4.03841 31.5081 30.0221 31.4644 31.9688 27.7144C33.9154 23.9644 21.0286 1.45624 17.0195 1.45624ZM26.8164 24.4225C25.541 26.8806 8.51692 26.9081 7.22656 24.4225C5.93619 21.9369 14.3945 7.21749 17.0215 7.21749C19.6484 7.21749 28.0918 21.9637 26.8164 24.4225Z" fill="url(#paint1_linear)"/>
<path d="M41.775 22.1837C41.0159 22.1837 40.3302 21.9755 39.7181 21.5592C39.1059 21.1307 38.6345 20.5614 38.3039 19.8513C38.2427 19.7533 38.2121 19.6554 38.2121 19.5574C38.2121 19.4105 38.2672 19.2881 38.3774 19.1901C38.4998 19.0922 38.6284 19.0432 38.7631 19.0432C38.959 19.0432 39.1304 19.1473 39.2773 19.3554C39.5099 19.8819 39.8466 20.3043 40.2874 20.6226C40.7281 20.9287 41.224 21.0817 41.775 21.0817C42.6198 21.0817 43.3054 20.8246 43.8319 20.3104C44.3583 19.7839 44.6216 19.0983 44.6216 18.2535V9.6953C44.6216 9.53614 44.6767 9.40758 44.7869 9.30963C44.897 9.19944 45.0378 9.14435 45.2093 9.14435C45.3807 9.14435 45.5153 9.19944 45.6133 9.30963C45.7235 9.40758 45.7786 9.53614 45.7786 9.6953V18.2535C45.7786 19.0003 45.6072 19.6737 45.2643 20.2737C44.9215 20.8736 44.444 21.345 43.8319 21.6878C43.2319 22.0184 42.5463 22.1837 41.775 22.1837ZM56.8944 16.7659C56.8944 16.9128 56.8393 17.0414 56.7291 17.1516C56.6189 17.2495 56.4904 17.2985 56.3435 17.2985H49.4014C49.4014 18.0331 49.5483 18.6943 49.8422 19.2819C50.1483 19.8574 50.5768 20.3165 51.1277 20.6593C51.6909 20.9899 52.3521 21.1552 53.1112 21.1552C53.6989 21.1552 54.2253 21.0328 54.6906 20.7879C55.1558 20.543 55.5293 20.2308 55.8109 19.8513C55.9455 19.7411 56.0741 19.686 56.1965 19.686C56.319 19.686 56.4292 19.735 56.5271 19.8329C56.6251 19.9309 56.674 20.041 56.674 20.1635C56.674 20.2982 56.6128 20.4267 56.4904 20.5491C56.0986 21.0266 55.6027 21.4184 55.0028 21.7245C54.4151 22.0306 53.7907 22.1837 53.1295 22.1837C52.1868 22.1837 51.3542 21.9816 50.6319 21.5776C49.9095 21.1736 49.3463 20.6104 48.9423 19.888C48.5382 19.1534 48.3362 18.3086 48.3362 17.3536C48.3362 16.3496 48.5321 15.4742 48.9239 14.7274C49.3279 13.9683 49.8605 13.3928 50.5217 13.001C51.1828 12.597 51.8868 12.395 52.6337 12.395C53.3683 12.395 54.0539 12.5664 54.6906 12.9092C55.3395 13.252 55.866 13.754 56.27 14.4152C56.674 15.0763 56.8822 15.8599 56.8944 16.7659ZM52.6337 13.4602C51.9236 13.4602 51.2624 13.705 50.6502 14.1948C50.0503 14.6845 49.6646 15.3885 49.4932 16.3068H55.7558V16.1599C55.6946 15.6089 55.5109 15.1314 55.2048 14.7274C54.8987 14.3111 54.5131 13.9989 54.0478 13.7907C53.5948 13.5704 53.1234 13.4602 52.6337 13.4602ZM60.3776 21.449C60.3776 21.6082 60.3225 21.7429 60.2123 21.8531C60.1144 21.951 59.9858 22 59.8267 22C59.6675 22 59.5328 21.951 59.4226 21.8531C59.3247 21.7429 59.2757 21.6082 59.2757 21.449V8.96069C59.2757 8.80153 59.3247 8.67297 59.4226 8.57502C59.5328 8.46483 59.6675 8.40974 59.8267 8.40974C59.9858 8.40974 60.1144 8.46483 60.2123 8.57502C60.3225 8.67297 60.3776 8.80153 60.3776 8.96069V21.449ZM64.6102 21.449C64.6102 21.6082 64.5551 21.7429 64.445 21.8531C64.347 21.951 64.2185 22 64.0593 22C63.9001 22 63.7654 21.951 63.6553 21.8531C63.5573 21.7429 63.5083 21.6082 63.5083 21.449V8.96069C63.5083 8.80153 63.5573 8.67297 63.6553 8.57502C63.7654 8.46483 63.9001 8.40974 64.0593 8.40974C64.2185 8.40974 64.347 8.46483 64.445 8.57502C64.5551 8.67297 64.6102 8.80153 64.6102 8.96069V21.449ZM74.3589 12.4501C74.518 12.4501 74.6466 12.5052 74.7445 12.6154C74.8547 12.7133 74.9098 12.8419 74.9098 13.001V21.1001C74.9098 22.0673 74.7201 22.8938 74.3405 23.5794C73.961 24.265 73.4345 24.7854 72.7611 25.1405C72.0877 25.4955 71.3286 25.673 70.4838 25.673C69.9696 25.673 69.486 25.6179 69.033 25.5078C68.5922 25.3976 68.2249 25.2506 67.931 25.067C67.6739 24.9078 67.5454 24.7303 67.5454 24.5344C67.5454 24.5099 67.5576 24.4487 67.5821 24.3507C67.6188 24.2283 67.6801 24.1365 67.7658 24.0753C67.8515 24.0141 67.9433 23.9834 68.0412 23.9834C68.1147 23.9834 68.1882 24.0018 68.2616 24.0385C69.0452 24.4671 69.7921 24.6813 70.5022 24.6813C71.5184 24.6813 72.3203 24.363 72.908 23.7263C73.508 23.0897 73.8079 22.2204 73.8079 21.1185V20.4757C73.5018 20.9899 73.0611 21.4062 72.4856 21.7245C71.9102 22.0306 71.2858 22.1837 70.6124 22.1837C69.5472 22.1837 68.7391 21.8653 68.1882 21.2287C67.6372 20.592 67.3617 19.7288 67.3617 18.6392V13.001C67.3617 12.8419 67.4107 12.7133 67.5086 12.6154C67.6188 12.5052 67.7535 12.4501 67.9127 12.4501C68.0718 12.4501 68.2004 12.5052 68.2984 12.6154C68.4085 12.7133 68.4636 12.8419 68.4636 13.001V18.4739C68.4636 19.3554 68.6534 20.0227 69.033 20.4757C69.4248 20.9287 70.0308 21.1552 70.8511 21.1552C71.3531 21.1552 71.8306 21.0328 72.2836 20.7879C72.7489 20.5308 73.1162 20.2002 73.3855 19.7962C73.6671 19.3799 73.8079 18.9391 73.8079 18.4739V13.001C73.8079 12.8419 73.8569 12.7133 73.9548 12.6154C74.065 12.5052 74.1997 12.4501 74.3589 12.4501ZM88.3311 9.14435C89.5064 9.14435 90.492 9.43819 91.2879 10.0259C92.0959 10.6013 92.6959 11.3788 93.0877 12.3583C93.4917 13.3255 93.6937 14.3968 93.6937 15.5722C93.6937 16.7843 93.4917 17.8739 93.0877 18.8412C92.6959 19.8084 92.0959 20.5798 91.2879 21.1552C90.492 21.7184 89.5064 22 88.3311 22H83.6479C83.4888 22 83.3541 21.951 83.2439 21.8531C83.146 21.7429 83.097 21.6082 83.097 21.449V9.6953C83.097 9.53614 83.146 9.40758 83.2439 9.30963C83.3541 9.19944 83.4888 9.14435 83.6479 9.14435H88.3311ZM88.1474 20.9165C89.6166 20.9165 90.7124 20.4267 91.4348 19.4472C92.1572 18.4555 92.5183 17.1638 92.5183 15.5722C92.5183 14.5805 92.3653 13.6867 92.0592 12.8909C91.7531 12.0828 91.2695 11.44 90.6084 10.9625C89.9595 10.4728 89.1391 10.2279 88.1474 10.2279H84.254V20.9165H88.1474ZM104.099 16.7659C104.099 16.9128 104.044 17.0414 103.933 17.1516C103.823 17.2495 103.695 17.2985 103.548 17.2985H96.6058C96.6058 18.0331 96.7527 18.6943 97.0465 19.2819C97.3526 19.8574 97.7811 20.3165 98.3321 20.6593C98.8953 20.9899 99.5564 21.1552 100.316 21.1552C100.903 21.1552 101.43 21.0328 101.895 20.7879C102.36 20.543 102.734 20.2308 103.015 19.8513C103.15 19.7411 103.278 19.686 103.401 19.686C103.523 19.686 103.634 19.735 103.731 19.8329C103.829 19.9309 103.878 20.041 103.878 20.1635C103.878 20.2982 103.817 20.4267 103.695 20.5491C103.303 21.0266 102.807 21.4184 102.207 21.7245C101.619 22.0306 100.995 22.1837 100.334 22.1837C99.3911 22.1837 98.5586 21.9816 97.8362 21.5776C97.1139 21.1736 96.5507 20.6104 96.1466 19.888C95.7426 19.1534 95.5406 18.3086 95.5406 17.3536C95.5406 16.3496 95.7365 15.4742 96.1283 14.7274C96.5323 13.9683 97.0649 13.3928 97.726 13.001C98.3872 12.597 99.0912 12.395 99.838 12.395C100.573 12.395 101.258 12.5664 101.895 12.9092C102.544 13.252 103.07 13.754 103.474 14.4152C103.878 15.0763 104.087 15.8599 104.099 16.7659ZM99.838 13.4602C99.1279 13.4602 98.4668 13.705 97.8546 14.1948C97.2547 14.6845 96.869 15.3885 96.6976 16.3068H102.96V16.1599C102.899 15.6089 102.715 15.1314 102.409 14.7274C102.103 14.3111 101.717 13.9989 101.252 13.7907C100.799 13.5704 100.328 13.4602 99.838 13.4602ZM105.837 20.5124C105.739 20.3533 105.69 20.2186 105.69 20.1084C105.69 19.9492 105.77 19.8268 105.929 19.7411C106.003 19.6676 106.101 19.6309 106.223 19.6309C106.37 19.6309 106.505 19.6921 106.627 19.8145C107.349 20.7695 108.31 21.247 109.51 21.247C110.098 21.247 110.606 21.1123 111.035 20.843C111.475 20.5614 111.696 20.1574 111.696 19.6309C111.696 19.1167 111.494 18.731 111.09 18.4739C110.686 18.2168 110.123 17.9964 109.4 17.8127C108.384 17.5556 107.588 17.225 107.013 16.821C106.437 16.4047 106.149 15.7987 106.149 15.0029C106.149 14.5009 106.29 14.054 106.572 13.6622C106.853 13.2582 107.233 12.9459 107.711 12.7256C108.2 12.5052 108.751 12.395 109.363 12.395C109.89 12.395 110.416 12.4991 110.943 12.7072C111.482 12.9031 111.941 13.2214 112.32 13.6622C112.43 13.7479 112.486 13.8703 112.486 14.0295C112.486 14.1764 112.424 14.305 112.302 14.4152C112.216 14.4886 112.106 14.5254 111.971 14.5254C111.849 14.5254 111.739 14.4764 111.641 14.3784C111.347 14.0479 110.998 13.7969 110.594 13.6255C110.19 13.4541 109.755 13.3683 109.29 13.3683C108.715 13.3683 108.219 13.503 107.802 13.7724C107.398 14.0417 107.196 14.4458 107.196 14.9845C107.221 15.4742 107.441 15.8477 107.857 16.1048C108.286 16.3619 108.91 16.5945 109.731 16.8026C110.367 16.9618 110.894 17.1393 111.31 17.3352C111.726 17.5311 112.063 17.8066 112.32 18.1617C112.59 18.5167 112.724 18.9881 112.724 19.5758C112.724 20.3716 112.406 21.0083 111.769 21.4858C111.133 21.951 110.343 22.1837 109.4 22.1837C107.906 22.1837 106.719 21.6266 105.837 20.5124ZM122.416 21.0266C122.527 21.1491 122.582 21.2899 122.582 21.449C122.582 21.6082 122.514 21.7429 122.38 21.8531C122.257 21.951 122.141 22 122.031 22C121.872 22 121.737 21.9327 121.627 21.798L117.568 17.5005L116.191 18.6759V21.449C116.191 21.6082 116.136 21.7429 116.025 21.8531C115.927 21.951 115.799 22 115.64 22C115.481 22 115.346 21.951 115.236 21.8531C115.138 21.7429 115.089 21.6082 115.089 21.449V8.96069C115.089 8.80153 115.138 8.67297 115.236 8.57502C115.346 8.46483 115.481 8.40974 115.64 8.40974C115.799 8.40974 115.927 8.46483 116.025 8.57502C116.136 8.67297 116.191 8.80153 116.191 8.96069V17.3352L121.498 12.7623C121.608 12.6399 121.737 12.5786 121.884 12.5786C122.019 12.5786 122.141 12.6399 122.251 12.7623C122.361 12.8725 122.416 12.9949 122.416 13.1296C122.416 13.2765 122.349 13.4173 122.214 13.552L118.431 16.7659L122.416 21.0266ZM126.643 13.6806V19.8329C126.643 20.2982 126.729 20.6165 126.9 20.7879C127.072 20.9471 127.298 21.0266 127.58 21.0266C127.653 21.0266 127.745 21.0144 127.855 20.9899C127.966 20.9532 128.051 20.9348 128.113 20.9348C128.223 20.9348 128.315 20.9838 128.388 21.0817C128.474 21.1674 128.517 21.2715 128.517 21.3939C128.517 21.5654 128.419 21.7123 128.223 21.8347C128.027 21.9449 127.794 22 127.525 22C127.194 22 126.9 21.9694 126.643 21.9082C126.386 21.847 126.135 21.6633 125.89 21.3572C125.658 21.0511 125.541 20.5614 125.541 19.888V13.6806H124.201C124.054 13.6806 123.925 13.6316 123.815 13.5336C123.717 13.4357 123.668 13.3133 123.668 13.1663C123.668 13.0194 123.717 12.897 123.815 12.799C123.925 12.7011 124.054 12.6521 124.201 12.6521H125.541V10.6136C125.541 10.4544 125.59 10.3258 125.688 10.2279C125.799 10.1177 125.933 10.0626 126.092 10.0626C126.252 10.0626 126.38 10.1177 126.478 10.2279C126.588 10.3258 126.643 10.4544 126.643 10.6136V12.6521H128.48C128.615 12.6521 128.731 12.7072 128.829 12.8174C128.939 12.9276 128.994 13.05 128.994 13.1847C128.994 13.3316 128.945 13.4541 128.847 13.552C128.749 13.6377 128.627 13.6806 128.48 13.6806H126.643ZM139.609 17.2985C139.609 18.2168 139.407 19.0493 139.003 19.7962C138.599 20.543 138.042 21.1307 137.332 21.5592C136.622 21.9755 135.832 22.1837 134.963 22.1837C134.093 22.1837 133.304 21.9755 132.593 21.5592C131.883 21.1307 131.326 20.543 130.922 19.7962C130.518 19.0493 130.316 18.2168 130.316 17.2985C130.316 16.3802 130.518 15.5477 130.922 14.8008C131.326 14.054 131.883 13.4663 132.593 13.0378C133.304 12.6093 134.093 12.395 134.963 12.395C135.832 12.395 136.622 12.6093 137.332 13.0378C138.042 13.4663 138.599 14.054 139.003 14.8008C139.407 15.5477 139.609 16.3802 139.609 17.2985ZM138.507 17.2985C138.507 16.5639 138.354 15.9027 138.048 15.3151C137.742 14.7274 137.313 14.2682 136.762 13.9377C136.224 13.5949 135.624 13.4234 134.963 13.4234C134.301 13.4234 133.701 13.5949 133.163 13.9377C132.624 14.2682 132.195 14.7274 131.877 15.3151C131.571 15.9027 131.418 16.5639 131.418 17.2985C131.418 18.0209 131.571 18.6759 131.877 19.2636C132.195 19.8513 132.624 20.3165 133.163 20.6593C133.701 20.9899 134.301 21.1552 134.963 21.1552C135.624 21.1552 136.224 20.9899 136.762 20.6593C137.313 20.3288 137.742 19.8696 138.048 19.2819C138.354 18.6943 138.507 18.0331 138.507 17.2985ZM146.326 12.5419C147.134 12.5419 147.868 12.7501 148.529 13.1663C149.191 13.5704 149.705 14.1397 150.072 14.8743C150.452 15.5967 150.641 16.4109 150.641 17.3169C150.641 18.2351 150.452 19.0616 150.072 19.7962C149.705 20.5185 149.191 21.0879 148.529 21.5041C147.88 21.9204 147.152 22.1286 146.344 22.1286C145.634 22.1286 144.979 21.9633 144.379 21.6327C143.791 21.2899 143.32 20.8369 142.965 20.2737V25.1221C142.965 25.2813 142.91 25.4098 142.799 25.5078C142.701 25.6179 142.573 25.673 142.414 25.673C142.255 25.673 142.12 25.6179 142.01 25.5078C141.912 25.4098 141.863 25.2813 141.863 25.1221V13.148C141.863 12.9888 141.912 12.8541 142.01 12.7439C142.12 12.6337 142.255 12.5786 142.414 12.5786C142.573 12.5786 142.701 12.6337 142.799 12.7439C142.91 12.8541 142.965 12.9888 142.965 13.148V14.3968C143.283 13.8214 143.742 13.3683 144.342 13.0378C144.942 12.7072 145.603 12.5419 146.326 12.5419ZM146.234 21.1001C146.87 21.1001 147.44 20.9409 147.942 20.6226C148.456 20.292 148.854 19.839 149.135 19.2636C149.429 18.6881 149.576 18.0392 149.576 17.3169C149.576 16.6067 149.429 15.9701 149.135 15.4069C148.854 14.8314 148.456 14.3846 147.942 14.0662C147.44 13.7357 146.87 13.5704 146.234 13.5704C145.585 13.5704 145.003 13.7295 144.489 14.0479C143.975 14.3662 143.577 14.8131 143.295 15.3885C143.014 15.9517 142.873 16.5945 142.873 17.3169C142.873 18.0392 143.014 18.6881 143.295 19.2636C143.577 19.839 143.975 20.292 144.489 20.6226C145.003 20.9409 145.585 21.1001 146.234 21.1001Z" fill="white"/>
<defs>
<linearGradient id="paint0_linear" x1="7.17771" y1="13.3313" x2="31.7776" y2="28.1255" gradientUnits="userSpaceOnUse">
<stop stop-color="#AA5CC3"/>
<stop offset="1" stop-color="#00A4DC"/>
</linearGradient>
<linearGradient id="paint1_linear" x1="7.17773" y1="13.3312" x2="31.7776" y2="28.1255" gradientUnits="userSpaceOnUse">
<stop stop-color="#AA5CC3"/>
<stop offset="1" stop-color="#00A4DC"/>
</linearGradient>
</defs>
</svg>

<svg width="152" height="32" fill="none" xmlns="http://www.w3.org/2000/svg"><path d="M17.02 12.601c-1.331 0-5.615 7.456-4.961 8.715.653 1.258 9.276 1.245 9.921 0 .646-1.245-3.63-8.714-4.96-8.715z" fill="url(#a)"/><path d="M17.02 1.456c-4.01 0-16.918 22.465-14.95 26.258 1.968 3.794 27.952 3.75 29.899 0 1.946-3.75-10.94-26.258-14.95-26.258zm9.796 22.966c-1.275 2.459-18.3 2.486-19.59 0-1.29-2.485 7.169-17.205 9.796-17.205 2.626 0 11.07 14.747 9.794 17.206z" fill="url(#b)"/><path d="M41.775 22.184c-.76 0-1.445-.209-2.057-.625a4.207 4.207 0 0 1-1.414-1.708.55.55 0 0 1-.092-.294c0-.146.055-.269.165-.367a.61.61 0 0 1 .386-.147c.196 0 .367.104.514.312.233.527.57.95 1.01 1.268.441.306.937.459 1.488.459.845 0 1.53-.257 2.057-.772.526-.526.79-1.212.79-2.056V9.694c0-.159.055-.287.165-.385.11-.11.25-.166.422-.166s.306.055.404.166c.11.098.166.226.166.385v8.558c0 .747-.172 1.42-.515 2.02-.343.6-.82 1.072-1.432 1.415-.6.33-1.286.496-2.057.496zm15.12-5.418a.529.529 0 0 1-.166.386.562.562 0 0 1-.386.146h-6.942c0 .735.147 1.396.441 1.984a3.567 3.567 0 0 0 1.286 1.377c.563.33 1.224.496 1.983.496.588 0 1.114-.122 1.58-.367a3.255 3.255 0 0 0 1.12-.937c.135-.11.263-.165.386-.165.122 0 .232.049.33.147a.457.457 0 0 1 .147.33c0 .135-.061.264-.184.386-.391.478-.887.87-1.487 1.175a3.998 3.998 0 0 1-1.873.46c-.943 0-1.776-.202-2.498-.606a4.311 4.311 0 0 1-1.69-1.69c-.404-.735-.606-1.58-.606-2.534 0-1.004.196-1.88.588-2.627.404-.759.937-1.334 1.598-1.726a3.983 3.983 0 0 1 2.112-.606c.734 0 1.42.171 2.057.514a4.048 4.048 0 0 1 1.579 1.506c.404.661.612 1.445.624 2.35zm-4.261-3.306c-.71 0-1.372.245-1.984.735-.6.49-.985 1.194-1.157 2.112h6.263v-.147a2.842 2.842 0 0 0-.551-1.433 2.87 2.87 0 0 0-1.157-.936 3.196 3.196 0 0 0-1.414-.33zm7.744 7.989a.55.55 0 0 1-.166.404.522.522 0 0 1-.385.147.587.587 0 0 1-.404-.147.587.587 0 0 1-.147-.404V8.961c0-.16.049-.288.147-.386a.55.55 0 0 1 .404-.165c.159 0 .287.055.385.165.11.098.166.227.166.386v12.488zm4.232 0a.55.55 0 0 1-.165.404.522.522 0 0 1-.386.147.586.586 0 0 1-.404-.147.586.586 0 0 1-.147-.404V8.961c0-.16.05-.288.147-.386a.55.55 0 0 1 .404-.165c.16 0 .288.055.386.165.11.098.165.227.165.386v12.488zm9.749-8.999c.159 0 .288.055.386.165.11.098.165.227.165.386v8.1c0 .966-.19 1.793-.57 2.478a3.805 3.805 0 0 1-1.579 1.561c-.673.355-1.432.533-2.277.533-.514 0-.998-.055-1.451-.165a3.832 3.832 0 0 1-1.102-.441c-.257-.16-.386-.337-.386-.533 0-.024.013-.085.037-.183a.502.502 0 0 1 .184-.276.465.465 0 0 1 .496-.037c.783.43 1.53.643 2.24.643 1.016 0 1.818-.318 2.406-.955.6-.636.9-1.506.9-2.607v-.643c-.306.514-.747.93-1.322 1.248-.576.307-1.2.46-1.874.46-1.065 0-1.873-.319-2.424-.955-.55-.637-.826-1.5-.826-2.59v-5.638c0-.16.049-.288.147-.386a.55.55 0 0 1 .404-.165c.159 0 .287.055.385.165.11.098.166.227.166.386v5.473c0 .881.19 1.549.569 2.002.392.453.998.68 1.818.68.502 0 .98-.123 1.433-.368a3.092 3.092 0 0 0 1.101-.992 2.32 2.32 0 0 0 .423-1.322V13c0-.16.049-.288.147-.386a.55.55 0 0 1 .404-.165zM88.33 9.144c1.175 0 2.161.294 2.957.882.808.575 1.408 1.353 1.8 2.332.404.967.606 2.039.606 3.214 0 1.212-.202 2.302-.606 3.27-.392.966-.992 1.738-1.8 2.313-.796.563-1.782.845-2.957.845h-4.683a.587.587 0 0 1-.404-.147.587.587 0 0 1-.147-.404V9.695c0-.159.049-.287.147-.385a.55.55 0 0 1 .404-.166h4.683zm-.184 11.772c1.47 0 2.565-.49 3.288-1.469.722-.991 1.083-2.283 1.083-3.875 0-.991-.153-1.885-.459-2.681-.306-.808-.79-1.451-1.45-1.928-.65-.49-1.47-.735-2.462-.735h-3.893v10.688h3.893zm15.952-4.15a.526.526 0 0 1-.166.386.56.56 0 0 1-.385.146h-6.942c0 .735.147 1.396.44 1.984a3.566 3.566 0 0 0 1.286 1.377c.563.33 1.224.496 1.984.496.587 0 1.114-.122 1.579-.367a3.25 3.25 0 0 0 1.12-.937c.135-.11.263-.165.386-.165.122 0 .233.049.33.147a.457.457 0 0 1 .147.33c0 .135-.061.264-.183.386-.392.478-.888.87-1.488 1.175a3.998 3.998 0 0 1-1.873.46c-.943 0-1.775-.202-2.498-.606a4.312 4.312 0 0 1-1.69-1.69c-.403-.735-.605-1.58-.605-2.534 0-1.004.196-1.88.587-2.627.404-.759.937-1.334 1.598-1.726a3.983 3.983 0 0 1 2.112-.606c.735 0 1.42.171 2.057.514a4.047 4.047 0 0 1 1.579 1.506c.404.661.613 1.445.625 2.35zm-4.261-3.306c-.71 0-1.371.245-1.983.735-.6.49-.986 1.194-1.157 2.112h6.262v-.147a2.841 2.841 0 0 0-.551-1.433 2.87 2.87 0 0 0-1.157-.936 3.194 3.194 0 0 0-1.414-.33zm5.999 7.052c-.098-.159-.147-.293-.147-.404 0-.159.08-.281.239-.367a.399.399 0 0 1 .294-.11.56.56 0 0 1 .404.183c.722.956 1.683 1.433 2.883 1.433.588 0 1.096-.135 1.525-.404.44-.282.661-.686.661-1.212 0-.514-.202-.9-.606-1.157-.404-.257-.967-.478-1.69-.661-1.016-.257-1.812-.588-2.387-.992-.576-.416-.864-1.022-.864-1.818 0-.502.141-.949.423-1.34a2.764 2.764 0 0 1 1.139-.937c.489-.22 1.04-.331 1.652-.331.527 0 1.053.104 1.58.312.539.196.998.514 1.377.955.11.086.166.208.166.367a.507.507 0 0 1-.184.386.491.491 0 0 1-.331.11.456.456 0 0 1-.33-.147 2.903 2.903 0 0 0-1.047-.752 3.305 3.305 0 0 0-1.304-.258c-.575 0-1.071.135-1.488.404-.404.27-.606.674-.606 1.213.025.49.245.863.661 1.12.429.257 1.053.49 1.874.698.636.159 1.163.336 1.579.532.416.196.753.472 1.01.827.27.355.404.826.404 1.414 0 .796-.318 1.432-.955 1.91-.636.465-1.426.698-2.369.698-1.494 0-2.681-.557-3.563-1.672zm16.579.515a.61.61 0 0 1 .166.422c0 .16-.068.294-.202.404-.123.098-.239.147-.349.147a.504.504 0 0 1-.404-.202l-4.059-4.297-1.377 1.175v2.773c0 .16-.055.294-.166.404a.52.52 0 0 1-.385.147.587.587 0 0 1-.404-.147.586.586 0 0 1-.147-.404V8.961c0-.16.049-.288.147-.386a.55.55 0 0 1 .404-.165.49.49 0 0 1 .385.165.49.49 0 0 1 .166.386v8.374l5.307-4.573a.505.505 0 0 1 .386-.183c.135 0 .257.06.367.183a.51.51 0 0 1 .165.368c0 .146-.067.287-.202.422l-3.783 3.214 3.985 4.26zm4.227-7.346v6.152c0 .465.086.784.257.955.172.16.398.239.68.239.073 0 .165-.013.275-.037a.887.887 0 0 1 .258-.055c.11 0 .202.049.275.147.086.085.129.19.129.312 0 .171-.098.318-.294.44-.196.11-.429.166-.698.166-.331 0-.625-.03-.882-.092-.257-.061-.508-.245-.753-.55-.232-.307-.349-.797-.349-1.47v-6.207h-1.34a.563.563 0 0 1-.386-.147.498.498 0 0 1-.147-.368c0-.147.049-.269.147-.367a.563.563 0 0 1 .386-.147h1.34v-2.038c0-.16.049-.288.147-.386a.551.551 0 0 1 .404-.165.49.49 0 0 1 .386.165c.11.098.165.226.165.386v2.038h1.837c.135 0 .251.055.349.165a.51.51 0 0 1 .018.735.537.537 0 0 1-.367.129h-1.837zm12.966 3.618c0 .918-.202 1.75-.606 2.497a4.542 4.542 0 0 1-1.671 1.763c-.71.416-1.5.625-2.369.625-.87 0-1.659-.209-2.37-.625a4.542 4.542 0 0 1-1.671-1.763c-.404-.747-.606-1.58-.606-2.497 0-.919.202-1.751.606-2.498a4.542 4.542 0 0 1 1.671-1.763 4.5 4.5 0 0 1 2.37-.643c.869 0 1.659.214 2.369.643a4.542 4.542 0 0 1 1.671 1.763c.404.747.606 1.58.606 2.498zm-1.102 0c0-.735-.153-1.396-.459-1.984a3.404 3.404 0 0 0-1.286-1.377 3.28 3.28 0 0 0-1.799-.515 3.28 3.28 0 0 0-1.8.515c-.539.33-.968.79-1.286 1.377-.306.588-.459 1.249-.459 1.984 0 .722.153 1.377.459 1.965a3.716 3.716 0 0 0 1.286 1.395 3.37 3.37 0 0 0 1.8.496c.661 0 1.261-.165 1.799-.496.551-.33.98-.79 1.286-1.377.306-.588.459-1.249.459-1.983zm7.819-4.757a4.05 4.05 0 0 1 2.203.624c.662.404 1.176.974 1.543 1.708.38.723.569 1.537.569 2.443 0 .918-.189 1.745-.569 2.48a4.243 4.243 0 0 1-1.543 1.707 3.96 3.96 0 0 1-2.185.625c-.71 0-1.365-.166-1.965-.496a4.062 4.062 0 0 1-1.414-1.36v4.85a.49.49 0 0 1-.166.385.49.49 0 0 1-.385.165.55.55 0 0 1-.404-.165.521.521 0 0 1-.147-.386V13.148c0-.16.049-.294.147-.404a.55.55 0 0 1 .404-.165.49.49 0 0 1 .385.165c.111.11.166.245.166.404v1.249a3.42 3.42 0 0 1 1.377-1.36c.6-.33 1.261-.495 1.984-.495zm-.092 8.558c.636 0 1.206-.16 1.708-.477.514-.331.912-.784 1.193-1.36.294-.575.441-1.224.441-1.946 0-.71-.147-1.347-.441-1.91a3.176 3.176 0 0 0-1.193-1.34 3.038 3.038 0 0 0-1.708-.497c-.649 0-1.231.16-1.745.478a3.185 3.185 0 0 0-1.194 1.34c-.281.564-.422 1.207-.422 1.929s.141 1.371.422 1.947a3.31 3.31 0 0 0 1.194 1.359 3.247 3.247 0 0 0 1.745.477z" fill="#fff"/><defs><linearGradient id="a" x1="7.178" y1="13.331" x2="31.778" y2="28.125" gradientUnits="userSpaceOnUse"><stop stop-color="#AA5CC3"/><stop offset="1" stop-color="#00A4DC"/></linearGradient><linearGradient id="b" x1="7.178" y1="13.331" x2="31.778" y2="28.125" gradientUnits="userSpaceOnUse"><stop stop-color="#AA5CC3"/><stop offset="1" stop-color="#00A4DC"/></linearGradient></defs></svg>
